X:825
T:Torn Jacket
R:reel
D:Declan Masterson: Tropical Trad
Z:id:hn-reel-448 modified to suit what I heard in Boston - Alf
M:C|
L:1/8
Q:1/4=200
K:D
~F3A dfed|cA~A2  B/c/d ed|~F3A dfed|cAGE EDDE|
~F3A dfed|cA~A2  B/c/d ec|dcde fded|cAGE EDDE:|
|:FAdf ~a3f|~g3f gfed|cA~A2  B/c/d ef|gfed cAGE|
FAdf ~a3f|~g3f gfef|gaba gfed|cAGE EDDE:|
